X:428
T:Isobel Cunningham 
C:Joe Buchanan's Scottish Tome - Page 391.0
I:391 0
Z:Carl Allison
C:Donald MacKay Anderson
R:March
L:1/8
M:2/4
K:D
e | AA/>B/ c/>d/c/<A/ | f/<a/f/>d/ eA/<B/ | c/>d/c/<A/ c/<e/A/>c/ | f/>e/e/>G/ Be |
AA/>B/ c/>d/c/<A/ | f/<a/f/>d/ eA/<B/ | c/>d/c/<A/ c/<e/G/>B/ | A>A A :|
g | a/>g/a/>e/ g/>a/g/>e/ | g/>e/d/>e/ ga | A/>A/A/>B/ d/>e/d/>B/  | g/>e/e/>G/ Bg |
a/>g/a/>e/ g/>a/g/>e/ | g/>e/d/>B/ eA/>B/ | c/>d/c/<A/ c/>e/A/>B/ | A>A A :|
e | Ac/<A/ e/>A/c/<A/  | g/>f/e/>f/ g/>e/d/>B/ | G/>G/B/>G/ d/>G/B/>G/ | g/>e/e/>G/ Be |
Ac/<A/ e/>A/c/<A/ | g/>f/e/>f/ aA/<B/ | c/>d/c/<A/ c/<e/G/>B/ | A<A  A :|
g | aa/>e/ c/<e/c/<A/ | dc/<e/ g/>e/d/>B/ | g/>f/g/>d/ B/<d/B/<G/ | g/>e/e/>G/ Bg |
aa/>e/ c/<e/c/<A/ | dc/<e/ aA/<B/ | c/>d/c/<A/ c/<e/G/>B/ | A<A A :|

